icons/desktop/16/svg/split-view-right-16.svg

<svg width="16" height="16" viewBox="0 0 16 16" fill="none" xmlns="http://www.w3.org/2000/svg">
<path d="M8 1C8.41421 1 8.75 1.33579 8.75 1.75V2.01855C10.3484 2.03682 11.9432 2.12213 13.5225 2.28516C14.9342 2.43137 16 3.61055 16 5.02539V10.9746C16 12.3896 14.9439 13.5659 13.5449 13.7119C11.956 13.877 10.3469 13.9705 8.75 13.9932V14.25C8.75 14.6642 8.41421 15 8 15C7.58579 15 7.25 14.6642 7.25 14.25V1.75C7.25 1.33579 7.58579 1 8 1Z" fill="black"/>
<path d="M5.75 3.55859C4.70111 3.60459 3.65125 3.67229 2.61035 3.78027C1.97735 3.84627 1.5 4.38139 1.5 5.02539V10.9746C1.5 11.6195 1.98593 12.1556 2.63184 12.2227C3.66584 12.3297 4.707 12.3974 5.75 12.4424V13.9424C4.655 13.8964 3.56054 13.8268 2.47754 13.7148C1.06577 13.5686 0 12.3895 0 10.9746V5.02539C0 3.61039 1.05608 2.43409 2.45508 2.28809C3.54906 2.17409 4.64802 2.10557 5.75 2.05957V3.55859Z" fill="black"/>
</svg>

<!-- This Source Code Form is subject to the terms of the Mozilla Public
   - License, v. 2.0. If a copy of the MPL was not distributed with this
   - file, You can obtain one at http://mozilla.org/MPL/2.0/. -->
<svg xmlns="http://www.w3.org/2000/svg" width="16" height="16" fill="context-fill" fill-opacity="context-fill-opacity" viewBox="0 0 16 16">
    <path d="M8 1a.75.75 0 0 1 .75.75v.269c1.598.018 3.193.103 4.773.266A2.753 2.753 0 0 1 16 5.025v5.95a2.74 2.74 0 0 1-2.455 2.737 54 54 0 0 1-4.795.281v.257a.75.75 0 0 1-1.5 0V1.75A.75.75 0 0 1 8 1M5.75 3.559a53 53 0 0 0-3.14.221A1.243 1.243 0 0 0 1.5 5.025v5.95c0 .645.486 1.18 1.132 1.248 1.034.107 2.075.174 3.118.22v1.5a54 54 0 0 1-3.272-.228A2.753 2.753 0 0 1 0 10.975v-5.95a2.74 2.74 0 0 1 2.455-2.737A53 53 0 0 1 5.75 2.06z" />
</svg>
